assets/svg/icon-large-apple-alt-dark-gray.svg

<?xml version="1.0" encoding="UTF-8" standalone="no"?>
<svg width="50px" height="64px" viewBox="0 0 50 64" version="1.1" xmlns="http://www.w3.org/2000/svg" xmlns:xlink="http://www.w3.org/1999/xlink">
    <!-- Generator: Sketch 3.8.3 (29802) - http://www.bohemiancoding.com/sketch -->
    <title>dark gray/icon-large-apple-alt-dark-gray</title>
    <desc>Created with Sketch.</desc>
    <defs></defs>
    <g id="gray" stroke="none" stroke-width="1" fill="none" fill-rule="evenodd">
        <g id="icons,-large-detailed-(gray)" transform="translate(-97.000000, -248.000000)" fill="#242F36">
            <g id="dark-gray/icon-large-apple-alt-dark-gray" transform="translate(97.000000, 248.000000)">
                <path d="M26.1269354,23.6207411 C26.1222908,23.4618242 26.1074215,23.1826265 26.0765343,22.7999849 C26.0258799,22.1724615 25.9475646,21.4757675 25.8356535,20.7265989 C25.5154417,18.5829978 24.9886018,16.4370393 24.2025976,14.4200294 C23.3736008,12.2926939 22.2998193,10.4304094 20.9428523,8.91311538 L18.9551439,10.6907898 C20.0805313,11.9491428 20.9973852,13.5392642 21.7179229,15.3882769 C22.424637,17.2018158 22.9053818,19.1600167 23.1982507,21.120575 C23.3009179,21.8078622 23.3725407,22.44502 23.4185132,23.0145431 C23.4456021,23.3501294 23.4580549,23.5839515 23.461407,23.6986453 L26.1269354,23.6207411 L26.1269354,23.6207411 Z" id="Path-1"></path>
                <path d="M24.8121861,22.6919982 C24.6642843,22.6282101 24.4044136,22.5244906 24.0457719,22.3942967 C23.4586992,22.181178 22.799921,21.9689086 22.0823845,21.7710624 C19.2550472,20.9914812 16.3631005,20.6482856 13.6200071,20.996631 C10.8606241,21.3470451 8.44785832,22.3881647 6.52797836,24.2397071 C3.78558986,26.8844809 2.01911717,29.6934997 1.04990415,32.5004964 C0.696990862,33.52259 0.472235673,34.4845658 0.351577516,35.3667703 C0.271309331,35.9536593 0.24698442,36.4221392 0.254607369,36.7534781 C0.25557353,36.788992 0.25557353,36.788992 0.256367151,36.8077225 C0.280474001,37.0350609 0.311196893,37.2533024 0.35910423,37.5532811 C0.437848606,38.0463504 0.53727891,38.5940488 0.659231232,39.1831288 C1.0082113,40.8688463 1.46930563,42.5561764 2.06024796,44.142007 C2.55540778,45.4707993 3.12234053,46.6719042 3.77079779,47.7160096 C6.38295144,51.9219364 8.92531884,56.7190781 8.92531876,57.2775451 C8.92531845,59.4419178 12.7701416,63.2005536 16.1748732,63.7276772 C17.0821005,63.8681349 18.0843714,63.8277902 19.1702322,63.6391488 C20.2742461,63.4473538 21.4314588,63.1084759 22.6059122,62.6647612 C23.2533432,62.4201583 23.8663325,62.1585698 24.4274545,61.8964833 C24.7679306,61.7374551 25.0192351,61.6115789 25.1632322,61.5353107 L23.7769748,61.4510488 C24.2568023,61.7853418 25.0697797,62.2603842 26.1360336,62.7314616 C27.9263448,63.5224319 29.7982253,63.9999999 31.679417,64 C33.7499059,64.0000001 35.7630955,62.9453986 37.6975342,61.2250631 C38.3444081,60.6497851 38.9373207,60.0369896 39.4665195,59.423748 C39.7870152,59.052354 40.0189307,58.7581341 40.1504676,58.5784887 L40.3161686,58.3521839 L40.3766486,58.0782992 C40.4343087,57.8171845 40.5620653,57.3327547 40.7646224,56.7015969 C41.1033143,55.6462502 41.5260674,54.5920417 42.033807,53.6177602 C42.5173678,52.6898742 43.0528073,51.8860612 43.6342092,51.2424673 C44.6799226,50.0848949 45.7162107,48.1729961 46.7703317,45.6725392 C47.3460402,44.3069139 47.8901517,42.8497004 48.3871926,41.3932641 C48.5609762,40.8840409 48.7166004,40.4109015 48.8519799,39.9856202 C48.9337793,39.7286555 48.9910573,39.5433813 49.0216976,39.4416275 L49.0687563,39.2166287 C49.0826514,39.1012676 49.1016467,38.9025592 49.1200573,38.6304823 C49.2798497,36.2690318 49.0995204,33.5767229 48.3045171,30.9842073 C47.5980544,28.6804238 46.460812,26.7196563 44.8120295,25.2350826 C43.7557002,24.2839574 42.5791848,23.4731176 41.3047468,22.7915026 C39.3806103,21.7624057 37.3311808,21.0730114 35.2833947,20.655095 C34.0496824,20.4033164 33.0786524,20.29691 32.4960127,20.2743588 L32.2847561,20.2661821 L32.0813322,20.3237575 L23.9210409,22.633381 L24.8121861,22.6919982 L24.8121861,22.6919982 Z M23.7561201,25.1406378 L24.1912756,25.3283146 L24.6472653,25.199255 L32.8075566,22.8896315 L32.3928761,22.9390303 C32.4911324,22.9428333 32.7011698,22.9579099 33.0065983,22.9913791 C33.5298841,23.0487212 34.1165673,23.1385993 34.750167,23.2679056 C36.5608856,23.6374408 38.3699607,24.2459838 40.0470952,25.1429753 C41.1379913,25.7264255 42.1374847,26.415264 43.027679,27.2168003 C44.2847891,28.3487096 45.180874,29.8936874 45.7550296,31.7660159 C46.4392228,33.9971785 46.5991975,36.3855936 46.4594749,38.4504485 C46.4443041,38.6746455 46.429718,38.8272298 46.4212256,38.8977366 L46.4682843,38.6727378 C46.4415476,38.761528 46.3883747,38.9335237 46.3109528,39.1767368 C46.1809636,39.5850852 46.0310551,40.0408474 45.8634453,40.5319799 C45.3850766,41.9337026 44.8619751,43.3346482 44.3130935,44.6366379 C43.3679432,46.8786078 42.4457612,48.5799866 41.6554084,49.4548828 C40.9087222,50.2814413 40.250425,51.2696908 39.6690024,52.3853599 C39.0847971,53.5063686 38.6072907,54.697114 38.2255107,55.8867211 C37.9957847,56.6025357 37.8472503,57.165751 37.7727138,57.5032907 L37.9988948,57.0031012 C37.9072988,57.1281978 37.7188478,57.3672763 37.4476428,57.6815518 C36.9906738,58.2110926 36.4778829,58.7410796 35.9254173,59.2323985 C34.4331713,60.5594829 32.9559235,61.3333334 31.6794171,61.3333333 C30.2136137,61.3333333 28.6906855,60.9447925 27.2136928,60.2922483 C26.6900626,60.0609053 26.2112875,59.813118 25.789596,59.5667134 C25.5435966,59.4229701 25.3769595,59.3157147 25.3013495,59.2630376 L24.6339238,58.798046 L23.915092,59.1787757 C23.808822,59.2350617 23.5970125,59.3411552 23.2989482,59.4803739 C22.7958359,59.7153655 22.2440051,59.950855 21.6634505,60.1701916 C20.6348374,60.5588072 19.6333251,60.8520898 18.7138014,61.0118342 C17.8926033,61.154497 17.1714217,61.183527 16.5828681,61.0924066 C14.3911083,60.7530763 11.5919853,58.0166998 11.5919854,57.2775455 C11.5919856,55.9434048 9.1037203,51.2483473 6.0361239,46.309095 C5.48922604,45.4285142 4.99627724,44.3841519 4.55906004,43.2108522 C4.02039171,41.7653021 3.59393478,40.2047242 3.27052751,38.6425338 C3.15714426,38.094846 3.06494416,37.5869743 2.99240138,37.1327371 C2.94953642,36.864332 2.92310638,36.676585 2.91150737,36.583205 C2.92073412,36.697775 2.92073412,36.697775 2.92056858,36.6921436 C2.90458841,35.99755 3.06267059,34.8417161 3.57054346,33.3708346 C4.40438347,30.9558999 5.94399917,28.5076258 8.37912545,26.1591772 C9.85596683,24.7349036 11.7350044,23.9240901 13.9559492,23.6420523 C16.2992414,23.3444776 18.8576836,23.6480954 21.3735564,24.3417965 C22.0204034,24.5201515 22.6125617,24.7109549 23.1358233,24.9009089 C23.4433821,25.0125587 23.6548001,25.0969398 23.7561201,25.1406378 L23.7561201,25.1406378 Z" id="Path-2"></path>
                <path d="M26.3198201,24.063738 C26.3966808,23.8220264 26.5536906,23.3778783 26.7851738,22.8004276 C27.1719592,21.835565 27.6223069,20.8715937 28.1276357,19.9797987 C28.5763281,19.1879546 29.0466149,18.4934748 29.5305722,17.9247119 C30.0392212,17.3269305 30.5479458,16.8864025 31.0396028,16.6199867 C31.1757157,16.5462309 31.33254,16.4686807 31.5135159,16.3854824 C31.5276881,16.3789672 34.9857434,14.9803353 36.1697941,14.3707958 C41.0767777,11.844721 43.6679175,7.95027826 43.2097688,1.49555718 L43.1251193,0.302955424 L41.9303783,0.257585185 C41.906886,0.256726681 41.906886,0.256726681 41.8376973,0.255103904 C41.1716726,0.24191876 40.2635767,0.27883403 39.1955467,0.407125436 C37.5500288,0.604784487 35.9168033,0.979220434 34.3767721,1.57754231 C29.727963,3.38366431 26.7676994,6.87515851 26.5223052,12.3080375 L26.5246614,12.4676527 C26.5375247,12.6396281 26.5626254,12.9332625 26.6000786,13.3088084 C26.662541,13.9351239 26.7375792,14.5621355 26.8258194,15.1519965 C26.9795881,16.1798971 27.1547966,16.9859048 27.3802658,17.5531494 L29.8583499,16.5681567 C29.7296444,16.2443544 29.5883006,15.5941334 29.4631395,14.7574667 C29.382097,14.2157204 29.3120358,13.6302956 29.2535819,13.0441747 C29.2184854,12.6922587 29.1952196,12.4200895 29.1838997,12.2687485 L29.1862558,12.4283637 C29.3797479,8.14456692 31.6109685,5.51294518 35.3424835,4.06320373 C36.6555958,3.55304275 38.0756103,3.22748789 39.5135796,3.05475951 C40.4494465,2.94234349 41.2357961,2.91037736 41.7849162,2.92124817 C41.8292125,2.92229858 41.8292125,2.92229858 41.8291847,2.92233113 L40.5497942,1.68435914 C40.9262422,6.98802319 38.9682024,9.93092652 34.9492507,11.9998498 C33.8959501,12.5420803 30.5156077,13.9092806 30.3996608,13.9625838 C30.1687004,14.0687609 29.9605308,14.1717015 29.7691402,14.2754109 C28.9584495,14.7147024 28.2065273,15.3658265 27.4996309,16.1965949 C26.8965594,16.9053448 26.3339691,17.7361305 25.8075523,18.6651412 C25.2376574,19.6708813 24.7381948,20.7399835 24.3099801,21.8081943 C24.0524632,22.4505877 23.8740764,22.9552071 23.7785404,23.2556484 L26.3198201,24.063738 L26.3198201,24.063738 Z" id="Path-3"></path>
                <path d="M31.2291159,27.7782226 C31.3143555,27.7575171 31.504964,27.7200552 31.7816622,27.6806992 C33.2569181,27.4708669 34.8750357,27.5321751 36.3574403,28.0443513 C38.0134812,28.6165195 39.310851,29.6978192 40.1756938,31.438464 L42.5638326,30.2519125 C41.375828,27.8608492 39.5232448,26.3168039 37.2282715,25.5238823 C35.2861323,24.8528661 33.2645745,24.7762721 31.4061496,25.0406042 C31.0399945,25.0926841 30.7653713,25.1466581 30.5996636,25.18691 L31.2291159,27.7782226 L31.2291159,27.7782226 Z" id="Path-4"></path>
                <path d="M11.3810155,52.2475938 C11.4687232,52.4668629 11.6298015,52.8427122 11.8542112,53.3235903 C12.227881,54.1243111 12.6444521,54.9254094 13.0950047,55.6763305 C14.4633027,57.9568271 15.8398089,59.3333333 17.3333333,59.3333333 C18.6562037,59.3333333 20.0203205,58.7876866 21.3698001,57.8880335 C21.8311264,57.5804827 22.2583266,57.2518672 22.6421942,56.9228377 C22.8746216,56.7236143 23.0432188,56.5662569 23.1380712,56.4714045 L22.1952621,55.5285955 C22.1234479,55.6004098 21.979545,55.7347191 21.7744724,55.9104956 C21.4291734,56.2064662 21.0438736,56.5028507 20.6301999,56.7786331 C19.4796795,57.5456467 18.3437963,58 17.3333333,58 C16.4935244,58 15.3700307,56.8765062 14.2383286,54.9903362 C13.8138813,54.2829239 13.4179524,53.5215222 13.0624554,52.759743 C12.8493652,52.3031211 12.6979435,51.9498038 12.6189845,51.7524062 L11.3810155,52.2475938 L11.3810155,52.2475938 Z" id="Path-22"></path>
            </g>
        </g>
    </g>
</svg>

<svg width="50" height="64" viewBox="0 0 50 64" xmlns="http://www.w3.org/2000/svg"><title>dark gray/icon-large-apple-alt-dark-gray</title><g fill="#242F36" fill-rule="evenodd"><path d="M26.127 23.62c-.005-.158-.02-.437-.05-.82a30.97 30.97 0 0 0-.241-2.073c-.32-2.144-.847-4.29-1.633-6.307-.83-2.127-1.903-3.99-3.26-5.507l-1.988 1.778c1.126 1.258 2.042 2.848 2.763 4.697.707 1.814 1.187 3.772 1.48 5.733.103.687.175 1.324.22 1.894.028.335.04.569.043.684l2.666-.078z"/><path d="M24.812 22.692a15.014 15.014 0 0 0-.766-.298 26.14 26.14 0 0 0-1.964-.623c-2.827-.78-5.719-1.123-8.462-.774-2.76.35-5.172 1.391-7.092 3.243-2.742 2.644-4.509 5.453-5.478 8.26a15.068 15.068 0 0 0-.698 2.867 9.052 9.052 0 0 0-.096 1.44c.024.228.055.446.103.746.079.493.178 1.041.3 1.63.35 1.686.81 3.373 1.401 4.959.495 1.329 1.062 2.53 1.71 3.574 2.613 4.206 5.155 9.003 5.155 9.562 0 2.164 3.845 5.923 7.25 6.45.907.14 1.91.1 2.995-.089 1.104-.192 2.261-.53 3.436-.974.647-.245 1.26-.506 1.821-.769.34-.159.592-.284.736-.36l-1.386-.085c.48.334 1.293.81 2.359 1.28 1.79.791 3.662 1.269 5.543 1.269 2.07 0 4.084-1.055 6.019-2.775a19.233 19.233 0 0 0 2.452-2.647l.166-.226.06-.274c.058-.26.186-.745.389-1.376a19.84 19.84 0 0 1 1.269-3.084c.483-.928 1.019-1.732 1.6-2.376 1.046-1.157 2.082-3.069 3.136-5.57a66.015 66.015 0 0 0 1.617-4.279 72.024 72.024 0 0 0 .635-1.951l.047-.225c.014-.116.033-.314.051-.587.16-2.361-.02-5.053-.815-7.646-.707-2.304-1.844-4.264-3.493-5.749a17.677 17.677 0 0 0-3.507-2.443c-1.924-1.03-3.974-1.719-6.022-2.137-1.233-.252-2.204-.358-2.787-.38l-.211-.009-.204.058-8.16 2.31.891.058zm-1.056 2.449l.435.187.456-.129 8.16-2.31-.414.05a9.9 9.9 0 0 1 .614.052c.523.058 1.11.148 1.743.277 1.81.37 3.62.978 5.297 1.875a15.02 15.02 0 0 1 2.98 2.074c1.258 1.132 2.154 2.677 2.728 4.549.684 2.231.844 4.62.704 6.684-.015.225-.03.377-.038.448l.047-.225c-.026.089-.08.26-.157.504-.13.408-.28.864-.448 1.355a63.42 63.42 0 0 1-1.55 4.105c-.945 2.242-1.867 3.943-2.658 4.818-.746.826-1.405 1.815-1.986 2.93a22.456 22.456 0 0 0-1.443 3.502c-.23.716-.379 1.279-.453 1.616l.226-.5a16.597 16.597 0 0 1-2.073 2.23c-1.493 1.326-2.97 2.1-4.247 2.1-1.465 0-2.988-.388-4.465-1.04a14.253 14.253 0 0 1-1.424-.726 8.156 8.156 0 0 1-.489-.304l-.667-.465-.719.38c-.106.057-.318.163-.616.302a23.58 23.58 0 0 1-1.636.69c-1.028.389-2.03.682-2.95.842-.82.142-1.542.172-2.13.08-2.192-.339-4.991-3.075-4.991-3.814 0-1.335-2.488-6.03-5.556-10.969-.547-.88-1.04-1.925-1.477-3.098-.539-1.446-.965-3.006-1.288-4.568a33.737 33.737 0 0 1-.279-1.51c-.042-.269-.069-.456-.08-.55l.009.11c-.016-.695.142-1.851.65-3.322.833-2.415 2.373-4.863 4.808-7.212 1.477-1.424 3.356-2.235 5.577-2.517 2.343-.298 4.902.006 7.418.7.646.178 1.239.369 1.762.559.307.112.519.196.62.24z"/><path d="M26.32 24.064c.077-.242.234-.686.465-1.264.387-.964.837-1.928 1.343-2.82.448-.792.919-1.487 1.403-2.055.508-.598 1.017-1.039 1.509-1.305a8.12 8.12 0 0 1 .474-.235c.014-.006 3.472-1.405 4.656-2.014 4.907-2.526 7.498-6.42 7.04-12.875L43.125.303 41.93.258l-.092-.003a19.517 19.517 0 0 0-2.642.152c-1.646.198-3.28.572-4.82 1.17-4.648 1.807-7.608 5.298-7.854 10.731l.003.16a38.29 38.29 0 0 0 .301 2.684c.154 1.028.329 1.834.554 2.401l2.478-.985c-.128-.324-.27-.974-.395-1.81a35.705 35.705 0 0 1-.28-2.49l.003.16c.194-4.283 2.425-6.915 6.156-8.365 1.314-.51 2.734-.836 4.172-1.008a16.921 16.921 0 0 1 2.27-.134l.045.001-1.28-1.238c.377 5.304-1.58 8.247-5.6 10.316-1.053.542-4.433 1.91-4.55 1.963-.23.106-.438.209-.63.312-.81.44-1.562 1.09-2.27 1.922-.602.708-1.165 1.54-1.691 2.468a26.135 26.135 0 0 0-1.498 3.143 22.402 22.402 0 0 0-.531 1.448l2.54.808zM31.23 27.778c.084-.02.275-.058.552-.097 1.475-.21 3.093-.149 4.575.363 1.656.573 2.954 1.654 3.819 3.394l2.388-1.186c-1.188-2.391-3.04-3.935-5.336-4.728-1.942-.671-3.963-.748-5.822-.483-.366.052-.64.106-.806.146l.63 2.591zM11.381 52.248c.088.219.249.595.473 1.076.374.8.79 1.601 1.241 2.352 1.368 2.28 2.745 3.657 4.238 3.657 1.323 0 2.687-.545 4.037-1.445.461-.308.888-.636 1.272-.965.233-.2.401-.357.496-.452l-.943-.942a11.983 11.983 0 0 1-1.565 1.25C19.48 57.546 18.344 58 17.333 58c-.84 0-1.963-1.123-3.095-3.01a24.56 24.56 0 0 1-1.176-2.23c-.213-.457-.364-.81-.443-1.008l-1.238.496z"/></g></svg>
